X:59
%
T:The Charming Fair Maid
C:J. O'Neill
L:1/4
M:3/4
Q:1/4=60
K:D treble
z z d/c/ | A A B/c/ | d2 d/e/ | f2 e/d/ | e d2 |
f2 g/f/ | e2 a | d c d | e d2 ||
e/d/ d (c/B/4A/4) | A/B/ c z | e/d/ d/c/ B/A/ | A/G/ F e/d/ | 
A2 d/e/ | f2 g/e/ | d c d | e d2 ||

%
% From O'Neill's Music of Ireland, No. 260
%
